X:183
T:Christ My King On High
%%stretchlast false
M:4/4
L:1/4
K:C clef=C1
"^I"[C,EG]3 "^iii"[E,G] | "^I¹"[E,,E,Gc]2 [E,,F,Gc] "^vii°"[F,B] | "^V7³"[F,,F,GB] [F,,F,GB]2 "^iv"[F,c] | "^IV"[F,,F,FA] [F,,C,FA]3 | "^vi7"[A,,C,EG]3 "^vi"[A,,E] | "^vi7³"[G,,A,,CE]2 "^v"[G,,A,,D] "^vi7³"[G,,A,,C] | "^I²"[G,,CE]3 "^iv"[C,F] | "^V"[G,,C,B,D]2 "^iii7¹"[G,,E,B,D]2 | "^I"[C,E,EG] [C,F,EG]2 "^v"[F,G] | "^I¹"[E,,F,Gc]3 "^vii°"[F,B] | "^V"[F,,C,GB]3 "^vi"[A,,c] | "^IV"[F,,A,,FA]3 [F,,G,,FA] | "^I²"[G,,C,EG]2 "^I"[C,EG] [C,E] | "^vi"[A,,C,CE]2 "^ii"[A,,D] "^vi"[A,,C] | "^I²"[G,,CE]3 D | "^i"[C,G,C]4 |]
